src/assets/outline/UsdCoin.svg

<svg width="24" height="24" viewBox="0 0 24 24"  xmlns="http://www.w3.org/2000/svg">
<path d="M16.9501 17.7002C16.7601 17.7002 16.5701 17.6302 16.4201 17.4802C16.1301 17.1902 16.1301 16.7102 16.4201 16.4202C17.6001 15.2402 18.2501 13.6702 18.2501 12.0002C18.2501 10.3302 17.6001 8.76024 16.4201 7.58024C16.1301 7.29024 16.1301 6.81023 16.4201 6.52023C16.7101 6.23023 17.1901 6.23023 17.4801 6.52023C18.9401 7.98023 19.7501 9.93024 19.7501 12.0002C19.7501 14.0702 18.9401 16.0202 17.4801 17.4802C17.3301 17.6302 17.1401 17.7002 16.9501 17.7002Z" />
<path d="M7.04999 17.7002C6.85999 17.7002 6.66999 17.6302 6.51999 17.4802C5.05999 16.0202 4.25 14.0702 4.25 12.0002C4.25 9.93024 5.05999 7.98023 6.51999 6.52023C6.80999 6.23023 7.28999 6.23023 7.57999 6.52023C7.86999 6.81023 7.86999 7.29024 7.57999 7.58024C6.39999 8.76024 5.75 10.3302 5.75 12.0002C5.75 13.6702 6.39999 15.2402 7.57999 16.4202C7.86999 16.7102 7.86999 17.1902 7.57999 17.4802C7.42999 17.6302 7.23999 17.7002 7.04999 17.7002Z" />
<path d="M12.9802 16.02H11.2202C9.95015 16.02 8.91016 14.95 8.91016 13.64C8.91016 13.23 9.25016 12.89 9.66016 12.89C10.0702 12.89 10.4102 13.23 10.4102 13.64C10.4102 14.13 10.7702 14.52 11.2202 14.52H12.9802C13.3102 14.52 13.5901 14.22 13.5901 13.85C13.5901 13.38 13.4802 13.32 13.1602 13.21L10.3502 12.23C9.39016 11.89 8.92017 11.22 8.92017 10.17C8.92017 8.97 9.86015 8 11.0302 8H12.7902C14.0602 8 15.1002 9.07 15.1002 10.38C15.1002 10.79 14.7602 11.13 14.3502 11.13C13.9402 11.13 13.6002 10.79 13.6002 10.38C13.6002 9.89 13.2402 9.5 12.7902 9.5H11.0302C10.7002 9.5 10.4202 9.8 10.4202 10.17C10.4202 10.64 10.5302 10.7 10.8502 10.81L13.6602 11.79C14.6202 12.13 15.0901 12.8 15.0901 13.85C15.0801 15.04 14.1402 16.02 12.9802 16.02Z" />
<path d="M12 16.9508C11.59 16.9508 11.25 16.6108 11.25 16.2008V7.80078C11.25 7.39078 11.59 7.05078 12 7.05078C12.41 7.05078 12.75 7.39078 12.75 7.80078V16.2008C12.75 16.6108 12.41 16.9508 12 16.9508Z" />
<path d="M12 22.75C6.07 22.75 1.25 17.93 1.25 12C1.25 6.07 6.07 1.25 12 1.25C17.93 1.25 22.75 6.07 22.75 12C22.75 17.93 17.93 22.75 12 22.75ZM12 2.75C6.9 2.75 2.75 6.9 2.75 12C2.75 17.1 6.9 21.25 12 21.25C17.1 21.25 21.25 17.1 21.25 12C21.25 6.9 17.1 2.75 12 2.75Z" />
</svg>

<?xml version="1.0" encoding="UTF-8"?>
<svg width="24" height="24" viewBox="0 0 24 24" xmlns="http://www.w3.org/2000/svg">
 <path d="m16.95 17.7c-0.19 0-0.38-0.07-0.53-0.22-0.29-0.29-0.29-0.77 0-1.06 1.18-1.18 1.83-2.75 1.83-4.42s-0.65-3.24-1.83-4.42c-0.29-0.29-0.29-0.77001 0-1.06s0.77-0.29 1.06 0c1.46 1.46 2.27 3.41 2.27 5.48 0 2.07-0.81 4.02-2.27 5.48-0.15 0.15-0.34 0.22-0.53 0.22z"/>
 <path d="m7.05 17.7c-0.19 0-0.38-0.07-0.53-0.22-1.46-1.46-2.27-3.41-2.27-5.48 0-2.07 0.80999-4.02 2.27-5.48 0.29-0.29 0.77-0.29 1.06 0s0.29 0.77001 0 1.06c-1.18 1.18-1.83 2.75-1.83 4.42s0.64999 3.24 1.83 4.42c0.29 0.29 0.29 0.77 0 1.06-0.15 0.15-0.34 0.22-0.53 0.22z"/>
 <path d="m12.98 16.02h-1.76c-1.27 0-2.31-1.07-2.31-2.38 0-0.41 0.34-0.75 0.75-0.75 0.41004 0 0.75004 0.34 0.75004 0.75 0 0.49 0.36 0.88 0.81 0.88h1.76c0.33 0 0.6099-0.3 0.6099-0.67 0-0.47-0.1099-0.53-0.4299-0.64l-2.81-0.98c-0.96004-0.34-1.43-1.01-1.43-2.06 0-1.2 0.93998-2.17 2.11-2.17h1.76c1.27 0 2.31 1.07 2.31 2.38 0 0.41-0.34 0.75-0.75 0.75s-0.75-0.34-0.75-0.75c0-0.49-0.36-0.88-0.81-0.88h-1.76c-0.33 0-0.61 0.3-0.61 0.67 0 0.47 0.11 0.53 0.43 0.64l2.81 0.98c0.96 0.34 1.4299 1.01 1.4299 2.06-0.01 1.19-0.9499 2.17-2.1099 2.17z"/>
 <path d="m12 16.951c-0.41 0-0.75-0.34-0.75-0.75v-8.4c0-0.41 0.34-0.75 0.75-0.75s0.75 0.34 0.75 0.75v8.4c0 0.41-0.34 0.75-0.75 0.75z"/>
 <path d="m12 22.75c-5.93 0-10.75-4.82-10.75-10.75s4.82-10.75 10.75-10.75 10.75 4.82 10.75 10.75-4.82 10.75-10.75 10.75zm0-20c-5.1 0-9.25 4.15-9.25 9.25s4.15 9.25 9.25 9.25 9.25-4.15 9.25-9.25-4.15-9.25-9.25-9.25z"/>
</svg>
